src/images/plan-cloud.svg

<svg xmlns="http://www.w3.org/2000/svg" width="257" height="253" fill="none" viewBox="0 0 257 253"><path fill="#35416B" fill-rule="evenodd" d="M8.44634 0H247.306C249.427 0.00203715 251.46 0.845899 252.958 2.34616C254.457 3.84642 255.299 5.88035 255.299 8.00102V244.074C255.299 246.193 254.457 248.227 252.958 249.726C251.459 251.225 249.426 252.067 247.306 252.067H8.44634C6.32576 252.067 4.29195 251.225 2.79175 249.726C1.29155 248.227 0.447777 246.194 0.44574 244.074V8.00102C0.44574 5.87902 1.28861 3.84393 2.78903 2.34345C4.28945 0.842963 6.32443 0 8.44634 0Z" clip-rule="evenodd"/><path fill="#F96132" fill-rule="evenodd" d="M0.48407 187.39H255.852V243.344C255.853 244.485 255.629 245.615 255.193 246.67C254.757 247.724 254.118 248.682 253.311 249.49C252.505 250.297 251.547 250.937 250.493 251.374C249.439 251.811 248.309 252.036 247.168 252.036L9.09955 252.766C7.98418 252.775 6.87829 252.562 5.84548 252.141C4.81267 251.719 3.87345 251.098 3.08189 250.312C2.29033 249.526 1.66209 248.591 1.23339 247.562C0.804694 246.532 0.583956 245.427 0.583986 244.312L0.48407 187.39Z" clip-rule="evenodd"/><path fill="#F7A501" fill-rule="evenodd" d="M82.6812 49.2976H175.922V142.043H82.6812V49.2976Z" clip-rule="evenodd"/><path fill="#F7A501" fill-rule="evenodd" d="M64.7737 147.623H195.674V187.974H64.7737V147.623Z" clip-rule="evenodd"/><path fill="#F96132" fill-rule="evenodd" d="M94.371 61.718H163.48V127.44H94.371V61.718Z" clip-rule="evenodd"/><path fill="#fff" fill-rule="evenodd" d="M0.00769307 171.396L26.669 171.342L49.326 217.496L0 218.103L0.00769307 171.396Z" clip-rule="evenodd"/><path fill="#BEBEBE" fill-rule="evenodd" d="M49.3566 217.465L49.3028 231.008L0.115234 233.06V218.034L49.3566 217.465Z" clip-rule="evenodd"/><path fill="#fff" fill-rule="evenodd" d="M144.581 198.289H176.43L196.174 237.779H164.325L144.581 198.289Z" clip-rule="evenodd"/><path fill="#F7A501" fill-rule="evenodd" d="M114.062 222.622L142.152 207.619L178.174 233.152L150.084 248.155L114.062 222.622Z" clip-rule="evenodd"/><path fill="#35416B" fill-rule="evenodd" d="M204.282 227.356C204.282 227.356 206.742 228.894 205.535 230.623C204.175 232.614 201.9 230.8 201.9 230.8L170.927 209.341L164.971 202.5L173.317 205.897L204.282 227.356Z" clip-rule="evenodd"/><path fill="#35416B" fill-rule="evenodd" d="M96.2692 240.146C96.2692 240.146 94.3786 242.329 96.0617 243.643C97.9677 245.126 99.5817 242.705 99.5817 242.705L122.577 212.853L126.181 204.53L119.264 210.294L96.2692 240.146Z" clip-rule="evenodd"/><path fill="#F96132" fill-rule="evenodd" d="M197.542 34.8479H236.9V84.6987H197.542V34.8479Z" clip-rule="evenodd"/><path fill="#F96132" fill-rule="evenodd" d="M23.6561 33.1033H63.0138V70.8641H23.6561V33.1033Z" clip-rule="evenodd"/><path fill="#F96132" fill-rule="evenodd" d="M205.896 97.926H245.246V147.777H205.896V97.926Z" clip-rule="evenodd"/><path fill="#fff" fill-rule="evenodd" d="M213.428 34.8403C213.442 34.4449 213.571 34.0623 213.801 33.7402C214.031 33.4181 214.35 33.1708 214.72 33.0292C215.089 32.8876 215.492 32.8579 215.878 32.9439C216.264 33.0298 216.616 33.2276 216.891 33.5126C217.165 33.7975 217.35 34.157 217.421 34.5461C217.492 34.9352 217.448 35.3367 217.292 35.7005C217.137 36.0643 216.878 36.3743 216.547 36.5917C216.217 36.8091 215.83 36.9244 215.434 36.9231C215.166 36.9181 214.901 36.8603 214.654 36.7529C214.408 36.6455 214.186 36.4907 214 36.2973C213.813 36.1038 213.667 35.8756 213.569 35.6256C213.471 35.3756 213.423 35.1088 213.428 34.8403Z" clip-rule="evenodd"/><path fill="#fff" fill-rule="evenodd" d="M39.5422 33.0954C39.5558 32.7 39.6856 32.3174 39.9153 31.9953C40.1449 31.6733 40.4644 31.426 40.8337 31.2843C41.2031 31.1427 41.6061 31.113 41.9922 31.199C42.3783 31.285 42.7305 31.4828 43.005 31.7677C43.2794 32.0526 43.4638 32.4121 43.5352 32.8012C43.6066 33.1903 43.5618 33.5918 43.4064 33.9556C43.251 34.3194 42.9919 34.6294 42.6614 34.8468C42.3309 35.0643 41.9437 35.1796 41.5481 35.1783C41.0066 35.1662 40.4917 34.9404 40.1159 34.5502C39.7402 34.16 39.534 33.6371 39.5422 33.0954Z" clip-rule="evenodd"/><path fill="#fff" fill-rule="evenodd" d="M221.79 97.9184C221.804 97.5234 221.933 97.1411 222.162 96.8191C222.392 96.4972 222.711 96.2499 223.08 96.108C223.449 95.9662 223.851 95.936 224.237 96.0214C224.623 96.1067 224.975 96.3037 225.25 96.5879C225.525 96.8721 225.71 97.2309 225.782 97.6195C225.854 98.0081 225.811 98.4094 225.656 98.7733C225.502 99.1373 225.244 99.4478 224.915 99.6661C224.585 99.8845 224.199 100.001 223.804 100.001C223.535 99.9973 223.269 99.9402 223.022 99.8332C222.775 99.7263 222.551 99.5716 222.364 99.3781C222.177 99.1846 222.03 98.956 221.932 98.7055C221.833 98.455 221.785 98.1875 221.79 97.9184Z" clip-rule="evenodd"/><path stroke="#fff" stroke-linecap="round" stroke-linejoin="round" stroke-width="1.111" d="M215.957 35.6624L217.494 37.7914"/><path fill="#F96132" fill-rule="evenodd" d="M42.0707 33.9177L43.6079 36.0467Z" clip-rule="evenodd"/><path stroke="#fff" stroke-linecap="round" stroke-linejoin="round" stroke-width="1.111" d="M42.0707 33.9177L43.6079 36.0467"/><path stroke="#fff" stroke-linecap="round" stroke-linejoin="round" stroke-width="1.111" d="M224.342 98.7332L225.879 100.87"/><path fill="#F7A501" fill-rule="evenodd" d="M13.1576 209.679L13.7648 244.365C13.7648 244.365 19.1447 251.129 30.9728 250.791C43.6002 250.43 47.3661 243.374 47.3661 243.374L47.6121 210.87C47.6121 210.87 47.0202 208.565 45.9289 207.665C42.1399 204.629 39.2271 203.054 30.3887 202.946C23.6177 202.892 18.6759 204.852 16.0013 206.666C14.8603 207.469 13.893 208.494 13.1576 209.679V209.679Z" clip-rule="evenodd"/><path stroke="#F7A501" stroke-linecap="round" stroke-linejoin="round" stroke-width="6.997" d="M47.4968 216.596C47.4968 216.596 58.9251 216.666 58.9251 218.041C58.9251 232.383 46.5745 238.025 46.5745 238.025"/><path fill="#35416B" fill-rule="evenodd" d="M15.7938 211.255C15.7938 207.758 22.3111 204.929 30.3503 204.929C38.3894 204.929 44.9068 207.758 44.9068 211.255C44.9068 214.752 38.3894 217.596 30.3503 217.596C22.3111 217.596 15.7938 214.759 15.7938 211.255Z" clip-rule="evenodd"/><path fill="#fff" fill-rule="evenodd" d="M204.813 159.083L226.547 188.205H255.261L256.083 159.083H204.813Z" clip-rule="evenodd"/><path fill="#BEBEBE" fill-rule="evenodd" d="M226.363 186.475V229.363L256.775 229.055L256.168 186.475H226.363Z" clip-rule="evenodd"/><path fill="#E7E7E7" fill-rule="evenodd" d="M204.989 159.014L203.767 197.92L226.647 229.701L226.447 186.206L204.989 159.014Z" clip-rule="evenodd"/></svg>

<svg fill="none" viewBox="0 0 257 253"><path fill="#35416B" fill-rule="evenodd" d="M8.446 0h238.86a7.998 7.998 0 017.993 8.001v236.073a7.995 7.995 0 01-7.993 7.993H8.446a8 8 0 01-8-7.993V8.001a8.001 8.001 0 018-8.001z" clip-rule="evenodd"/><path fill="#F96132" fill-rule="evenodd" d="M.484 187.39h255.368v55.954a8.688 8.688 0 01-5.359 8.03 8.682 8.682 0 01-3.325.662l-238.068.73a8.44 8.44 0 01-6.018-2.454 8.462 8.462 0 01-2.498-6l-.1-56.922z" clip-rule="evenodd"/><path fill="#F7A501" fill-rule="evenodd" d="M82.681 49.298h93.241v92.745h-93.24V49.298zm-17.907 98.325h130.9v40.351h-130.9v-40.351z" clip-rule="evenodd"/><path fill="#F96132" fill-rule="evenodd" d="M94.371 61.718h69.109v65.722H94.371V61.718z" clip-rule="evenodd"/><path fill="#fff" fill-rule="evenodd" d="M.008 171.396l26.661-.054 22.657 46.154L0 218.103l.008-46.707z" clip-rule="evenodd"/><path fill="#BEBEBE" fill-rule="evenodd" d="M49.357 217.465l-.054 13.543L.115 233.06v-15.026l49.242-.569z" clip-rule="evenodd"/><path fill="#fff" fill-rule="evenodd" d="M144.581 198.289h31.849l19.744 39.49h-31.849l-19.744-39.49z" clip-rule="evenodd"/><path fill="#F7A501" fill-rule="evenodd" d="M114.062 222.622l28.09-15.003 36.022 25.533-28.09 15.003-36.022-25.533z" clip-rule="evenodd"/><path fill="#35416B" fill-rule="evenodd" d="M204.282 227.356s2.46 1.538 1.253 3.267c-1.36 1.991-3.635.177-3.635.177l-30.973-21.459-5.956-6.841 8.346 3.397 30.965 21.459zm-108.013 12.79s-1.89 2.183-.207 3.497c1.906 1.483 3.52-.938 3.52-.938l22.995-29.852 3.604-8.323-6.917 5.764-22.995 29.852z" clip-rule="evenodd"/><path fill="#F96132" fill-rule="evenodd" d="M197.542 34.848H236.9v49.85h-39.358v-49.85zM23.656 33.103h39.358v37.761H23.656v-37.76zm182.24 64.823h39.35v49.851h-39.35V97.926z" clip-rule="evenodd"/><path fill="#fff" fill-rule="evenodd" d="M213.428 34.84a2.015 2.015 0 112.006 2.083 2.052 2.052 0 01-1.434-.626 2.034 2.034 0 01-.572-1.457zM39.542 33.095a2.014 2.014 0 112.006 2.083 2.052 2.052 0 01-2.006-2.083zM221.79 97.918a2.019 2.019 0 012.447-1.897 2.014 2.014 0 01-.433 3.98 2.039 2.039 0 01-1.872-1.296 2.038 2.038 0 01-.142-.787z" clip-rule="evenodd"/><path stroke="#fff" stroke-linecap="round" stroke-linejoin="round" stroke-width="1.111" d="M215.957 35.662l1.537 2.13"/><path fill="#F96132" fill-rule="evenodd" d="M42.07 33.918l1.538 2.129z" clip-rule="evenodd"/><path stroke="#fff" stroke-linecap="round" stroke-linejoin="round" stroke-width="1.111" d="M42.07 33.918l1.538 2.129m180.734 62.686l1.537 2.137"/><path fill="#F7A501" fill-rule="evenodd" d="M13.158 209.679l.607 34.686s5.38 6.764 17.208 6.426c12.627-.361 16.393-7.417 16.393-7.417l.246-32.504s-.592-2.305-1.683-3.205c-3.79-3.036-6.702-4.611-15.54-4.719-6.771-.054-11.713 1.906-14.388 3.72a10.374 10.374 0 00-2.843 3.013z" clip-rule="evenodd"/><path stroke="#F7A501" stroke-linecap="round" stroke-linejoin="round" stroke-width="6.997" d="M47.497 216.596s11.428.07 11.428 1.445c0 14.342-12.35 19.984-12.35 19.984"/><path fill="#35416B" fill-rule="evenodd" d="M15.794 211.255c0-3.497 6.517-6.326 14.556-6.326 8.04 0 14.557 2.829 14.557 6.326 0 3.497-6.518 6.341-14.557 6.341-8.039 0-14.556-2.837-14.556-6.341z" clip-rule="evenodd"/><path fill="#fff" fill-rule="evenodd" d="M204.813 159.083l21.734 29.122h28.714l.822-29.122h-51.27z" clip-rule="evenodd"/><path fill="#BEBEBE" fill-rule="evenodd" d="M226.363 186.475v42.888l30.412-.308-.607-42.58h-29.805z" clip-rule="evenodd"/><path fill="#E7E7E7" fill-rule="evenodd" d="M204.989 159.014l-1.222 38.906 22.88 31.781-.2-43.495-21.458-27.192z" clip-rule="evenodd"/></svg>
